svg/blobs-icons/no-decorations/sim-card.svg

<svg xmlns="http://www.w3.org/2000/svg" xmlns:xlink="http://www.w3.org/1999/xlink" preserveAspectRatio="xMidYMid" width="162" height="216" viewBox="0 0 162 216"><defs><style>.cls-3{fill:#0cb04a}.cls-4{fill:#000;opacity:.35}.cls-5{fill:#142a3b}.cls-9{fill:#ededed}</style></defs><g id="group-141svg"><path d="M157.156 215.549s-152.675.0-152.675.0C1.999 215.549-.009 213.541-.009 211.059V4.507c0-2.482 2.008-4.491 4.49-4.491H113.484C114.769.016 115.997.568 116.847 1.533l43.672 49.393C161.247 51.743 161.646 52.803 161.646 53.899v157.16C161.646 213.541 159.638 215.549 157.156 215.549z" id="path-1" class="cls-3" fill-rule="evenodd"/><path d="M160.519 50.926S116.847 1.533 116.847 1.533C115.997.568 114.769.016 113.484.016H4.481C2.063.016.127 1.933.028 4.327H104.862C106.147 4.327 107.375 4.879 108.225 5.844l43.672 49.393C152.626 56.053 153.024 57.113 153.024 58.21V215.369C153.024 215.434 152.991 215.485 152.988 215.549H157.156C159.638 215.549 161.646 213.541 161.646 211.059V53.899C161.646 52.803 161.247 51.743 160.519 50.926z" id="path-2" class="cls-4" fill-rule="evenodd"/><path d="M30.526 35.22s-7.185.0-7.185.0.0-34.126.0-34.126 7.185.0 7.185.0.0 34.126.0 34.126z" id="path-3" class="cls-5" fill-rule="evenodd"/><path d="M57.468 35.22S50.284 35.22 50.284 35.22s0-34.126.0-34.126S57.468 1.094 57.468 1.094s0 34.126.0 34.126z" id="path-4" class="cls-5" fill-rule="evenodd"/><path d="M84.411 35.22s-7.185.0-7.185.0.0-34.126.0-34.126 7.185.0 7.185.0.0 34.126.0 34.126z" id="path-5" class="cls-5" fill-rule="evenodd"/><path d="M111.353 35.22s-7.184.0-7.184.0.0-34.126.0-34.126 7.184.0 7.184.0.0 34.126.0 34.126z" id="path-6" class="cls-5" fill-rule="evenodd"/><path d="M130.213 215.549s-98.789.0-98.789.0C28.941 215.549 26.934 213.541 26.934 211.059V139.214c0-13.216 8.204-22.451 19.947-22.451h62.867c11.778.0 24.956 9.60299999999999 24.956 22.451v71.845C134.704 213.541 132.695 215.549 130.213 215.549z" id="path-7" class="cls-9" fill-rule="evenodd"/><path d="M109.748 116.763s-62.867.0-62.867.0c-5.01.0-9.314 1.761-12.674 4.71499999999999C35.505 121.223 36.853 121.075 38.26 121.075h62.866c11.778.0 24.956 9.60199999999999 24.956 22.449v71.845C126.082 215.434 126.048 215.485 126.046 215.549H130.213C132.695 215.549 134.704 213.541 134.704 211.059V139.214c0-12.848-13.178-22.451-24.956-22.451z" id="path-8" class="cls-4" fill-rule="evenodd"/></g></svg>

<svg xmlns="http://www.w3.org/2000/svg" xmlns:xlink="http://www.w3.org/1999/xlink" preserveAspectRatio="xMidYMid" width="162" height="216" viewBox="0 0 162 216">
  <defs>
    <style>

      .cls-3 {
        fill: #0cb04a;
      }

      .cls-4 {
        fill: #000000;
        opacity: 0.35;
      }

      .cls-5 {
        fill: #142a3b;
      }

      .cls-9 {
        fill: #ededed;
      }
    </style>
  </defs>
  <g id="group-141svg">
    <path d="M157.156,215.549 C157.156,215.549 4.481,215.549 4.481,215.549 C1.999,215.549 -0.009,213.541 -0.009,211.059 C-0.009,211.059 -0.009,4.507 -0.009,4.507 C-0.009,2.025 1.999,0.016 4.481,0.016 C4.481,0.016 113.484,0.016 113.484,0.016 C114.769,0.016 115.997,0.568 116.847,1.533 C116.847,1.533 160.519,50.926 160.519,50.926 C161.247,51.743 161.646,52.803 161.646,53.899 C161.646,53.899 161.646,211.059 161.646,211.059 C161.646,213.541 159.638,215.549 157.156,215.549 Z" id="path-1" class="cls-3" fill-rule="evenodd"/>
    <path d="M160.519,50.926 C160.519,50.926 116.847,1.533 116.847,1.533 C115.997,0.568 114.769,0.016 113.484,0.016 C113.484,0.016 4.481,0.016 4.481,0.016 C2.063,0.016 0.127,1.933 0.028,4.327 C0.028,4.327 104.862,4.327 104.862,4.327 C106.147,4.327 107.375,4.879 108.225,5.844 C108.225,5.844 151.897,55.237 151.897,55.237 C152.626,56.053 153.024,57.113 153.024,58.210 C153.024,58.210 153.024,215.369 153.024,215.369 C153.024,215.434 152.991,215.485 152.988,215.549 C152.988,215.549 157.156,215.549 157.156,215.549 C159.638,215.549 161.646,213.541 161.646,211.059 C161.646,211.059 161.646,53.899 161.646,53.899 C161.646,52.803 161.247,51.743 160.519,50.926 Z" id="path-2" class="cls-4" fill-rule="evenodd"/>
    <path d="M30.526,35.220 C30.526,35.220 23.341,35.220 23.341,35.220 C23.341,35.220 23.341,1.094 23.341,1.094 C23.341,1.094 30.526,1.094 30.526,1.094 C30.526,1.094 30.526,35.220 30.526,35.220 Z" id="path-3" class="cls-5" fill-rule="evenodd"/>
    <path d="M57.468,35.220 C57.468,35.220 50.284,35.220 50.284,35.220 C50.284,35.220 50.284,1.094 50.284,1.094 C50.284,1.094 57.468,1.094 57.468,1.094 C57.468,1.094 57.468,35.220 57.468,35.220 Z" id="path-4" class="cls-5" fill-rule="evenodd"/>
    <path d="M84.411,35.220 C84.411,35.220 77.226,35.220 77.226,35.220 C77.226,35.220 77.226,1.094 77.226,1.094 C77.226,1.094 84.411,1.094 84.411,1.094 C84.411,1.094 84.411,35.220 84.411,35.220 Z" id="path-5" class="cls-5" fill-rule="evenodd"/>
    <path d="M111.353,35.220 C111.353,35.220 104.169,35.220 104.169,35.220 C104.169,35.220 104.169,1.094 104.169,1.094 C104.169,1.094 111.353,1.094 111.353,1.094 C111.353,1.094 111.353,35.220 111.353,35.220 Z" id="path-6" class="cls-5" fill-rule="evenodd"/>
    <path d="M130.213,215.549 C130.213,215.549 31.424,215.549 31.424,215.549 C28.941,215.549 26.934,213.541 26.934,211.059 C26.934,211.059 26.934,139.214 26.934,139.214 C26.934,125.998 35.138,116.763 46.881,116.763 C46.881,116.763 109.748,116.763 109.748,116.763 C121.526,116.763 134.704,126.366 134.704,139.214 C134.704,139.214 134.704,211.059 134.704,211.059 C134.704,213.541 132.695,215.549 130.213,215.549 Z" id="path-7" class="cls-9" fill-rule="evenodd"/>
    <path d="M109.748,116.763 C109.748,116.763 46.881,116.763 46.881,116.763 C41.871,116.763 37.567,118.524 34.207,121.478 C35.505,121.223 36.853,121.075 38.260,121.075 C38.260,121.075 101.126,121.075 101.126,121.075 C112.904,121.075 126.082,130.677 126.082,143.524 C126.082,143.524 126.082,215.369 126.082,215.369 C126.082,215.434 126.048,215.485 126.046,215.549 C126.046,215.549 130.213,215.549 130.213,215.549 C132.695,215.549 134.704,213.541 134.704,211.059 C134.704,211.059 134.704,139.214 134.704,139.214 C134.704,126.366 121.526,116.763 109.748,116.763 Z" id="path-8" class="cls-4" fill-rule="evenodd"/>
  </g>
</svg>
